X:1
T:Title
%%score ( 1 2 ) { 3 | 4 }
L:1/8
Q:1/4=100
M:2/4
K:A
V:1 treble nm="Grand Piano, Soprano"
V:2 treble 
V:3 bass nm="Choir Pad, Savannah (Robinson)"
V:4 bass 
V:1
 E2 [EA]2 | [EB]2 [Ec][Ec] | [Ec][Ee] [Fd]2 | [Ec]2 [EB]2- | [EB]E [EA]2 | [EB]2 [Ec][Ec] | %6
w: By~Anonymous,~1881 *||||||
 [Ec][Ee] [Fd]2 | B-[DB] [CA]2- | [CA][CA] [EB]2 | [Ed]2 [Ec][Ec] | [Ec][EB] [Ec]2 | %11
w: |||||
 [A^d]2 [Ge]2- | [Ge]E [EA]2 | [EB]2 [Ec][Ec] | [Ec][Ee] [Ec]2 | B-[DB] [CA]2- | [CA]4- | %17
w: ||||||
 [CA]2 z2 |] %18
w: |
V:2
 x4 | x4 | x4 | x4 | x4 | x4 | x4 | .E2 z2 | x4 | x4 | x4 | x4 | x4 | x4 | x4 | .E2 z2 | x4 | x4 |] %18
V:3
 E,2 A,2 | G,2 A,A, | A,C A,2 | A,2 G,2- | G,E, A,2 | G,2 A,A, | A,C A,2 | G,2 A,2- | A,A, G,2 | %9
 B,2 A,A, | A,B, A,2 | B,2 B,2- | B,B, A,2 | G,2 A,A, | A,C A,2 | G,2 A,2- | A,4- | A,2 z2 |] %18
V:4
 z2 C,2 | E,2 z E, | C,A,, D,2 | A,,2 E,2- | E,2 C,2 | E,2 z E, | C,A,, D,2 | E,2 A,,2- | %8
 A,,A,, E,2 | E,2 z2 | z G, z2 | F,2 E,2- | E,E, C,2 | E,2 z E, | C,A,, D,2 | E,2 A,,2- | A,,4- | %17
 A,,2 z2 |] %18

